images/svg/facebook.svg

<svg width="9" height="17" viewBox="0 0 9 17" fill="none" xmlns="http://www.w3.org/2000/svg">
<path d="M5.08929 5.59821V3.5625C5.08929 3.00064 5.54529 2.54464 6.10714 2.54464H7.125V0H5.08929C3.4027 0 2.03571 1.36698 2.03571 3.05357V5.59821H0V8.14286H2.03571V16.2857H5.08929V8.14286H7.125L8.14286 5.59821H5.08929Z" fill="white"/>
</svg>

<svg width="9" height="17" fill="none" xmlns="http://www.w3.org/2000/svg"><path d="M5.09 5.598V3.563c0-.562.455-1.018 1.017-1.018h1.018V0H5.089a3.053 3.053 0 00-3.053 3.054v2.544H0v2.545h2.036v8.143h3.053V8.143h2.036l1.018-2.545H5.089z" fill="#fff"/></svg>
